X: 24354
T: Louise's
R: reel
M: 4/4
K: Gmajor
|:agab g2 dB|gedB dgfg|e2 ge dBGA|BAAG ABGF|
EFGA DGBd|BAdB GABd|cdeg gedc|1 BgdB Aefg:|2 BgdB ABGF||
|:~E2 GD EDB,A,|G,GGA BdAG|EGcd BGDG|BAAG ABGF|
~E2 GD EFGA|AGdB GABd|cdeg dBGA|1 ~B2 dB ABGF:|2 BgdB Aefg||

